icon/cg/arrow-up-r.svg

<svg viewBox="0 0 24 24" fill="none" xmlns="http://www.w3.org/2000/svg" height="1em" width="1em">
  <path d="M14.8543 11.9741L16.2686 10.5599L12.0259 6.31724L7.78327 10.5599L9.19749 11.9741L11.0259 10.1457V17.6828H13.0259V10.1457L14.8543 11.9741Z" fill="currentColor"/>
  <path fill-rule="evenodd" clip-rule="evenodd" d="M1 19C1 21.2091 2.79086 23 5 23H19C21.2091 23 23 21.2091 23 19V5C23 2.79086 21.2091 1 19 1H5C2.79086 1 1 2.79086 1 5V19ZM5 21H19C20.1046 21 21 20.1046 21 19V5C21 3.89543 20.1046 3 19 3H5C3.89543 3 3 3.89543 3 5V19C3 20.1046 3.89543 21 5 21Z" fill="currentColor"/>
</svg>

<svg width="24" height="24" fill="none" xmlns="http://www.w3.org/2000/svg"><path d="m14.854 11.974 1.415-1.414-4.243-4.243-4.243 4.243 1.414 1.414 1.829-1.828v7.537h2v-7.537l1.828 1.828Z" fill="currentColor"/><path fill-rule="evenodd" clip-rule="evenodd" d="M1 19a4 4 0 0 0 4 4h14a4 4 0 0 0 4-4V5a4 4 0 0 0-4-4H5a4 4 0 0 0-4 4v14Zm4 2h14a2 2 0 0 0 2-2V5a2 2 0 0 0-2-2H5a2 2 0 0 0-2 2v14a2 2 0 0 0 2 2Z" fill="currentColor"/></svg>
